X: 38374
T: Staple's Haggard
R: reel
M: 4/4
K: Cmajor
|:cAGE AEGE|CGEC B,GDB,|CE,G,C EGcG|Acdc GFEF|
G/A/G E/G/c ecGE|FEDC B,G,A,B,|CEGE FAdc|1 BGFD C2 E/F/G:|2 BGFD C3 z||
|:CDEG cAGE|CGEC B,GDB,|CD E/F/G cABe|fdec dc A/B/c|
Gceg aege|fedc BgdB|cGEG AFDC|1 B,CDB, C2 C/C/C:|2 B,CDB, C3||

